!!!SOCIAL_FUNCTION:	songs with the corn dance
!!!PDT:	1956
!!!OTL: No_5_Corn_Dance_Song_(a).krn
!!!LANG: Non-Tone
!!!LING_GROUP: Muskogean
!!!REG: Florida
**kern
*staff1
=1-
*clefF4
*k[b-e-a-d-g-]
*M2/4
4B-\
8A-\L
16A-\L
16F\JJ
=2
4.F\
8E-\
=3
4E-\
8D-\L
16D-\L
16BB-\JJ
=4
4BB-/
8.D-/L
16BB-/Jk
=5||
*M3/4
4BB-/
8BB-/L
8D-/J
8BB-/L
8D-/J
=6||
*M2/4
4.E-\
8BB-/
=7||
*M3/4
16BB-/LL
16BB-/
16D-/
16D-/JJ
8BB-/L
8GG-/J
8FF/
8r
=8
8.BB-/L
16BB-/Jk
8BB-/L
8FF/J
16BB-/LL
16BB-/
16.BB-/
32B-/JJk
=9
(4.B-\
8F\)
(8B-\L
8F\J)
=10
*k[b-e-]
*M2/4
4r
4BB-/
=11
2B-\
=12||
*M5/8
8B-\L
8G\
8F\
8E-\
8F\J
=13||
*M3/4
4E-\
16E-\
16r
8B-\
4B-\
=14||
*M2/4
2F\
=15||
*M5/8
8F/L
8D/
8C/
8BB-/
8C/J
=16||
*M2/4
4BB-/
16BB-/LK
8.AA/J
=17
4BB-/
8D/L
8BB-/J
=18||
*M3/8
16BB-/LL
16BB-/
16D/
16BB-/J
8D/J
=19||
*M3/4
4BB-/
8BB-/L
8BB-/J
8.F\L
16F\Jk
=20
4F\
4B-\
4F\
=21
2F\
8.C/L
16C/Jk
=22
4C/
8BB-/
8r
4C/
=23||
*M2/4
4BB-/
16C/LK
8.C/J
=24
8F/L
8C/J
4C/
=25||
*M3/4
4BB-/
4C/
8C/
8r
=26
[2B-\
(8B-\L]
8F\J)
*-
